svg/u1f6f9.svg

<svg viewBox="0 0 128 128" xmlns="http://www.w3.org/2000/svg">
  <defs/>
  <path d="M109.732,78.505 L81.992,63.245 L85.848,56.235 L113.588,71.495 L109.732,78.505 Z" fill="#82AEC0"/>
  <path d="M54.097,106.85 L27.587,91.82 L31.533,84.86 L58.043,99.89 L54.097,106.85 Z" fill="#82AEC0"/>
  <path d="M43.3,94.91 C46.27,90.42 50.99,89.17 54.61,90.71 C60.15,93.06 61.02,95.01 61.02,95.01 C59.54,97.25 50.11,110.8 50.11,110.8 C50.11,110.8 46.18,109.06 43.85,106.96 C40.94,104.33 40.33,99.4 43.3,94.91 Z" fill="#F44336"/>
  <path d="M42.14,97.08 C42.14,97.08 41.72,99.71 43.53,100.59 C46.47,102.02 48.08,99.16 48.08,99.16 C48.08,99.16 50.27,95.65 54.19,94.24 C59.7,92.25 61.72,96.05 61.72,96.05 C61.72,96.05 60.26,91.52 53.76,90.42 C51.93,90.11 47.93,91.42 46.72,92.12 C42.82,94.37 42.14,97.08 42.14,97.08 Z" fill="#C62828"/>
  <path d="M59.938,94.06 C63.218,96.229 63.468,101.628 60.497,106.119 C57.526,110.61 52.459,112.492 49.18,110.323 C45.9,108.153 45.65,102.754 48.621,98.263 C51.592,93.772 56.659,91.89 59.938,94.06 Z" fill="#FF7555"/>
  <path d="M53.1,103.95 C53.89,102.93 54.53,102.23 55.26,103.25 C55.57,103.74 55.87,104.47 56.47,104.59 C58.29,104.97 58.85,102.51 58.68,101.25 C58.24,98.27 54.67,98.58 53.05,101.18 C52.11,102.6 52.21,104.44 52.58,105.3 C52.58,105.31 52.94,104.19 53.1,103.95 Z" fill="#C62828"/>
  <path d="M17.39,82.77 C20.36,78.28 25.08,77.03 28.7,78.57 C34.24,80.92 35.11,82.87 35.11,82.87 C33.63,85.11 24.2,98.66 24.2,98.66 C24.2,98.66 20.27,96.92 17.94,94.82 C15.03,92.19 14.42,87.26 17.39,82.77 Z" fill="#F44336"/>
  <path d="M34.035,81.917 C37.315,84.086 37.565,89.485 34.594,93.976 C31.624,98.467 26.557,100.349 23.277,98.18 C19.998,96.01 19.747,90.611 22.718,86.12 C25.689,81.629 30.756,79.747 34.035,81.917 Z" fill="#C62828"/>
  <path d="M100.42,66.75 C103.4,62.27 108.13,61.04 111.75,62.59 C117.28,64.96 118.15,66.92 118.15,66.92 C116.66,69.16 107.19,82.67 107.19,82.67 C107.19,82.67 103.26,80.92 100.94,78.81 C98.03,76.16 97.44,71.23 100.42,66.75 Z" fill="#F44336"/>
  <path d="M99.26,68.92 C99.26,68.92 98.83,71.55 100.64,72.43 C103.58,73.87 105.2,71.01 105.2,71.01 C105.2,71.01 107.7,67.15 111.67,65.86 C116.74,64.21 118.86,67.94 118.86,67.94 C118.86,67.94 117.38,64.2 111.29,62.54 C107.45,61.49 103.94,63.35 102.97,64.13 C99.43,66.94 99.26,68.92 99.26,68.92 Z" fill="#C62828"/>
  <path d="M117.062,65.94 C120.335,68.121 120.567,73.521 117.581,78.002 C114.596,82.483 109.522,84.349 106.25,82.168 C102.977,79.988 102.745,74.587 105.731,70.106 C108.717,65.625 113.79,63.76 117.062,65.94 Z" fill="#FF7555"/>
  <path d="M110.21,76.02 C110.74,75.41 111.54,74.39 112.27,75.42 C112.58,75.91 112.96,76.4 113.56,76.48 C115.45,76.74 115.95,74.41 115.78,73.14 C115.35,70.16 111.78,70.46 110.15,73.05 C109.21,74.46 109.3,76.25 109.66,77.17 C109.66,77.17 109.87,76.42 110.21,76.02 Z" fill="#C62828"/>
  <path d="M124.01,39.89 C120.49,29.69 114.12,28.41 111.62,27.52 C111.62,27.52 116.1,31.34 118.15,35.98 C120.79,41.98 120.64,49.5 114.91,53.56 L39.47,88.86 C21.89,93.17 3.28,75.53 3.28,75.53 C2.67,79.58 1.22,87.11 16.21,92.69 C29.68,97.7 43.05,96.58 48.74,93.73 L116.95,61.14 C123.69,57.29 126.89,48.22 124.01,39.89 Z" fill="#DDB98C"/>
  <path d="M121.49,36.46 C117.97,26.26 106.24,25.85 99.57,27.54 C94.03,28.95 87.77,34.11 83.16,37.98 C80.68,40.06 76.76,41.85 76.76,41.85 L20.18,68.92 C20.18,68.92 18.54,69.61 15.78,69.68 C12.96,69.75 4.86,69.32 3.54,74.14 C2.36,78.47 4.19,84.22 17.33,89.18 C30.78,94.26 40.53,93.15 46.23,90.31 L114.44,57.72 C121.17,53.87 124.37,44.8 121.49,36.46 Z" fill="#424242"/>
  <path d="M37.598,79.37 C39.069,79.535 40.161,80.559 40.038,81.657 C39.914,82.754 38.622,83.51 37.151,83.345 C35.68,83.18 34.588,82.156 34.711,81.058 C34.835,79.961 36.127,79.205 37.598,79.37 Z" fill="#757575"/>
  <path d="M28.328,73.831 C29.799,73.997 30.892,75.021 30.768,76.118 C30.645,77.216 29.352,77.972 27.882,77.806 C26.411,77.641 25.319,76.617 25.442,75.52 C25.565,74.422 26.858,73.666 28.328,73.831 Z" fill="#757575"/>
  <path d="M47.08,74.914 C48.551,75.079 49.643,76.103 49.52,77.201 C49.396,78.298 48.104,79.054 46.633,78.889 C45.162,78.723 44.07,77.7 44.193,76.602 C44.317,75.504 45.609,74.749 47.08,74.914 Z" fill="#757575"/>
  <path d="M37.809,69.385 C39.28,69.551 40.372,70.574 40.249,71.672 C40.126,72.77 38.833,73.525 37.362,73.36 C35.892,73.195 34.799,72.171 34.923,71.073 C35.046,69.976 36.338,69.22 37.809,69.385 Z" fill="#757575"/>
  <path d="M89.041,54.268 C90.512,54.433 91.604,55.457 91.481,56.554 C91.358,57.652 90.065,58.408 88.594,58.243 C87.124,58.077 86.031,57.053 86.155,55.956 C86.278,54.858 87.571,54.102 89.041,54.268 Z" fill="#757575"/>
  <path d="M79.771,48.739 C81.242,48.904 82.334,49.928 82.211,51.026 C82.087,52.123 80.795,52.879 79.324,52.714 C77.853,52.548 76.761,51.525 76.884,50.427 C77.008,49.329 78.3,48.574 79.771,48.739 Z" fill="#757575"/>
  <path d="M98.677,49.897 C100.148,50.063 101.24,51.086 101.117,52.184 C100.994,53.282 99.701,54.037 98.23,53.872 C96.76,53.707 95.667,52.683 95.791,51.585 C95.914,50.488 97.206,49.732 98.677,49.897 Z" fill="#757575"/>
  <path d="M89.407,44.369 C90.878,44.534 91.97,45.558 91.846,46.655 C91.723,47.753 90.431,48.509 88.96,48.343 C87.489,48.178 86.397,47.154 86.52,46.057 C86.644,44.959 87.936,44.203 89.407,44.369 Z" fill="#757575"/>
</svg>

<svg viewBox="0 0 128 128" xmlns="http://www.w3.org/2000/svg">
  <g>
    <line fill="none" stroke="#82AEC0" stroke-width="8" stroke-miterlimit="10" x1="111.66" x2="83.92" y1="75" y2="59.74"/>
    <line fill="none" stroke="#82AEC0" stroke-width="8" stroke-miterlimit="10" x1="56.07" x2="29.56" y1="103.37" y2="88.34"/>
    <path d="M43.3,94.91c2.97-4.49,7.69-5.74,11.31-4.2c5.54,2.35,6.41,4.3,6.41,4.3 c-1.48,2.24-10.91,15.79-10.91,15.79s-3.93-1.74-6.26-3.84C40.94,104.33,40.33,99.4,43.3,94.91z" fill="#F44336"/>
    <path d="M42.14,97.08c0,0-0.42,2.63,1.39,3.51c2.94,1.43,4.55-1.43,4.55-1.43s2.19-3.51,6.11-4.92 c5.51-1.99,7.53,1.81,7.53,1.81s-1.46-4.53-7.96-5.63c-1.83-0.31-5.83,1-7.04,1.7C42.82,94.37,42.14,97.08,42.14,97.08z" fill="#C62828"/>
    <ellipse cx="54.56" cy="102.19" rx="9.75" ry="7.12" fill="#FF7555" transform="matrix(0.5517 -0.834 0.834 0.5517 -60.7682 91.3159)"/>
    <path d="M53.1,103.95c0.79-1.02,1.43-1.72,2.16-0.7c0.31,0.49,0.61,1.22,1.21,1.34 c1.82,0.38,2.38-2.08,2.21-3.34c-0.44-2.98-4.01-2.67-5.63-0.07c-0.94,1.42-0.84,3.26-0.47,4.12 C52.58,105.31,52.94,104.19,53.1,103.95z" fill="#C62828"/>
    <path d="M17.39,82.77c2.97-4.49,7.69-5.74,11.31-4.2c5.54,2.35,6.41,4.3,6.41,4.3 c-1.48,2.24-10.91,15.79-10.91,15.79s-3.93-1.74-6.26-3.84C15.03,92.19,14.42,87.26,17.39,82.77z" fill="#F44336"/>
    <ellipse cx="28.66" cy="90.05" rx="9.75" ry="7.12" fill="#C62828" transform="matrix(0.5517 -0.834 0.834 0.5517 -62.2572 64.27)"/>
    <path d="M100.42,66.75c2.98-4.48,7.71-5.71,11.33-4.16c5.53,2.37,6.4,4.33,6.4,4.33 c-1.49,2.24-10.96,15.75-10.96,15.75s-3.93-1.75-6.25-3.86C98.03,76.16,97.44,71.23,100.42,66.75z" fill="#F44336"/>
    <path d="M99.26,68.92c0,0-0.43,2.63,1.38,3.51c2.94,1.44,4.56-1.42,4.56-1.42s2.5-3.86,6.47-5.15 c5.07-1.65,7.19,2.08,7.19,2.08s-1.48-3.74-7.57-5.4c-3.84-1.05-7.35,0.81-8.32,1.59C99.43,66.94,99.26,68.92,99.26,68.92z" fill="#C62828"/>
    <ellipse cx="111.66" cy="74.06" rx="9.75" ry="7.12" fill="#FF7555" transform="matrix(0.5545 -0.8322 0.8322 0.5545 -11.8921 125.9114)"/>
    <path d="M110.21,76.02c0.53-0.61,1.33-1.63,2.06-0.6c0.31,0.49,0.69,0.98,1.29,1.06 c1.89,0.26,2.39-2.07,2.22-3.34c-0.43-2.98-4-2.68-5.63-0.09c-0.94,1.41-0.85,3.2-0.49,4.12 C109.66,77.17,109.87,76.42,110.21,76.02z" fill="#C62828"/>
    <path d="M124.01,39.89c-3.52-10.2-9.89-11.48-12.39-12.37c0,0,4.48,3.82,6.53,8.46 c2.64,6,2.49,13.52-3.24,17.58l-75.44,35.3C21.89,93.17,3.28,75.53,3.28,75.53c-0.61,4.05-2.06,11.58,12.93,17.16 c13.47,5.01,26.84,3.89,32.53,1.04l68.21-32.59C123.69,57.29,126.89,48.22,124.01,39.89z" fill="#DDB98C"/>
    <path d="M121.49,36.46c-3.52-10.2-15.25-10.61-21.92-8.92c-5.54,1.41-11.8,6.57-16.41,10.44 c-2.48,2.08-6.4,3.87-6.4,3.87L20.18,68.92c0,0-1.64,0.69-4.4,0.76c-2.82,0.07-10.92-0.36-12.24,4.46 c-1.18,4.33,0.65,10.08,13.79,15.04c13.45,5.08,23.2,3.97,28.9,1.13l68.21-32.59C121.17,53.87,124.37,44.8,121.49,36.46z" fill="#424242"/>
    <ellipse cx="37.37" cy="81.35" rx="2" ry="2.68" fill="#757575" transform="matrix(0.1117 -0.9937 0.9937 0.1117 -47.6372 109.4053)"/>
    <ellipse cx="28.11" cy="75.82" rx="2" ry="2.68" fill="#757575" transform="matrix(0.1117 -0.9937 0.9937 0.1117 -50.3772 95.2827)"/>
    <ellipse cx="46.86" cy="76.9" rx="2" ry="2.68" fill="#757575" transform="matrix(0.1117 -0.9937 0.9937 0.1117 -34.7934 114.8764)"/>
    <ellipse cx="37.59" cy="71.37" rx="2" ry="2.68" fill="#757575" transform="matrix(0.1117 -0.9937 0.9937 0.1117 -37.5333 100.7538)"/>
    <ellipse cx="88.81" cy="56.25" rx="2" ry="2.68" fill="#757575" transform="matrix(0.1117 -0.9937 0.9937 0.1117 23.0022 138.2225)"/>
    <ellipse cx="79.54" cy="50.72" rx="2" ry="2.68" fill="#757575" transform="matrix(0.1117 -0.9937 0.9937 0.1117 20.2623 124.0999)"/>
    <ellipse cx="98.45" cy="51.88" rx="2" ry="2.68" fill="#757575" transform="matrix(0.1117 -0.9937 0.9937 0.1117 35.9038 143.9195)"/>
    <ellipse cx="89.18" cy="46.35" rx="2" ry="2.68" fill="#757575" transform="matrix(0.1117 -0.9937 0.9937 0.1117 33.1639 129.7969)"/>
  </g>
</svg>
